packages/ffe-icons/icons/filled/sm/range_hood.svg

<svg xmlns="http://www.w3.org/2000/svg" height="20" viewBox="0 -960 960 960" width="20"><path d="M196.077-438.306q-17.077 0-22.807-15.077-5.731-15.077 7.115-26.923l127.616-116.232v-135.153q0-26.827 18.741-45.567 18.74-18.741 45.567-18.741h215.382q26.827 0 45.567 18.741 18.741 18.74 18.741 45.567v135.153L779.23-480.306q12.846 11.846 7.006 26.923-5.841 15.077-23.082 15.077H196.077Zm-15.768 274.305q-26.827 0-45.567-18.741-18.741-18.74-18.741-45.567v-125.845q0-13.366 9.395-22.76 9.394-9.394 22.759-9.394h663.69q13.365 0 22.759 9.394 9.395 9.394 9.395 22.76v125.845q0 26.827-18.741 45.567-18.74 18.741-45.567 18.741H180.309Zm245.537-82.153h108.308q12.333 0 21.09-8.752Q564-263.657 564-275.982q0-12.325-8.756-21.095-8.757-8.769-21.09-8.769H425.846q-12.333 0-21.09 8.752Q396-288.343 396-276.018q0 12.325 8.756 21.095 8.757 8.769 21.09 8.769Z"/></svg>

<svg xmlns="http://www.w3.org/2000/svg" height="20" viewBox="0 -960 960 960" width="20"><path d="M196.08-438.31q-17.08 0-22.81-15.07-5.73-15.08 7.12-26.93L308-596.54v-135.15q0-26.83 18.74-45.57Q345.48-796 372.31-796h215.38q26.83 0 45.57 18.74Q652-758.52 652-731.69v135.15l127.23 116.23q12.85 11.85 7.01 26.93-5.84 15.07-23.09 15.07H196.08ZM180.31-164q-26.83 0-45.57-18.74Q116-201.48 116-228.31v-125.84q0-13.37 9.4-22.76 9.39-9.4 22.76-9.4h663.68q13.37 0 22.76 9.4 9.4 9.39 9.4 22.76v125.84q0 26.83-18.74 45.57Q806.52-164 779.69-164H180.31Zm245.54-82.15h108.3q12.34 0 21.09-8.76 8.76-8.75 8.76-21.07 0-12.33-8.76-21.1-8.75-8.77-21.09-8.77h-108.3q-12.34 0-21.09 8.76-8.76 8.75-8.76 21.07 0 12.33 8.76 21.1 8.75 8.77 21.09 8.77Z"/></svg>
